icons/svg/24x24/share/filled.svg

<svg width="24" height="24" fill="none" xmlns="http://www.w3.org/2000/svg">
  <path fill-rule="evenodd" clip-rule="evenodd" d="M23 11l-9-8v4.939c-.867.061-1.732.197-2.584.405-1.567.409-3.097 1.049-4.45 1.969-1.361.898-2.553 2.059-3.415 3.385A9.632 9.632 0 002 17.965c1.047-1.041 2.156-1.855 3.289-2.456a13.036 13.036 0 013.47-1.229 20.422 20.422 0 013.521-.348c.574-.02 1.146-.014 1.72-.003V19l9-8z" fill="#000"/>
</svg>

<svg xmlns="http://www.w3.org/2000/svg" width="24" height="24" viewBox="0 0 24 24">
  <path fill-rule="evenodd" d="M23,11 L14,3 L14,7.939 C13.133,8 12.268,8.136 11.416,8.344 C9.849,8.753 8.319,9.393 6.966,10.313 C5.605,11.211 4.413,12.372 3.551,13.698 C2.679,15.019 2.154,16.502 2,17.965 C3.047,16.924 4.156,16.11 5.289,15.509 C6.428,14.91 7.588,14.521 8.759,14.28 C9.937,14.06 11.105,13.946 12.28,13.932 C12.854,13.912 13.426,13.918 14,13.929 L14,19 L23,11 Z"/>
</svg>
